!!!!SEGMENT: pl-kk--kk-i-6--026-001_palestrina-giovanni-pierluigi-da--missa-marcelli-papae-kyrie.krn
!!!cenid: 16xx:989
!!!COM: Palestrina, Giovanni Pierluigi da
!!!COM-rismID: pe1904
!!!CDT: ~1525-1594/02/02
!!!CNT: Italian
!!!OPR: Missa Marcelli Papae
!!!OTL: Kyrie
!!!OMV: 001
!!!PDT:
!!!AGN: Sacred; Mass
!!!YEC: Copyright 2022 Narodowy Instytut Fryderyka Chopina (https://polishscores.org)
!!!YEM: License CC-BY-4.0 (https://creativecommons.org/licenses/by/4.0)
!!!SMS-siglum: PL-Kk
!!!SMS-shelfmark: Kk.I.6
!!!SMS-shelfwork: 026-001 M
!!!SMS-variant:
!!!SMS-altvar:
!!!NIFC-rismSourceID: 1001135513
!!!NIFC-rismChildID: 1001136041
!!!NIFC-islandoraID: pl-kk:1634
!!!URL-pdf-islandora: https://repozytorium.nifc.pl/islandora/object/pl-kk%3A1634/datastream/PDF/view
!!!URL-scan: https://polish.musicsources.pl/pl/lokalizacje/galeria/rekopisy/6133 @EN{Scan on Polish Music Sources Website} @PL{Skany w portalu Dziedzictwo Muzyki Polskiej w otwartym dostępie}
!!!IIIF:
!!!ONB-nifc: UWAGA: C (skan 0028-0032, s. 52-61), T (skan 0131-0136, s. 66-76), B (skan 0241-0246, s. 65-74) Części Mszy: 1. Kyrie, 2. Et in terra, 3. Patrem, 4. Sanctus, 5. Agnus Dei
!!!AIN: 1 empty 1 tenor 1 vox
!!!key:
**kern	**text	**kern	**text	**kern	**text
*part3	*	*part2	*	*part1	*
*staff3	*	*staff2	*	*staff1	*
*Iempty	*	*Itenor	*	*Ivox	*
*I"Baſsus.	*	*I"Tenor.	*	*I"Cantus.	*
*I'B	*	*I'T	*	*I'C	*
*clefF4	*	*clefC3	*	*clefC4	*
*k[b-]	*	*k[b-]	*	*k[b-]	*
*F:	*	*F:	*	*F:	*
*M2/1	*	*M2/1	*	*M2/1	*
*met(C|)	*	*met(C|)	*	*met(C|)	*
=1-	=1-	=1-	=1-	=1-	=1-
*^	*	*	*	*	*
!LO:TX:t=P:problem=partia Cantus. zapisana pomocniczo	!	!	!	!	!	!
0rF	1.G	.	0r	.	1.G	Ky-
!	!	!	!	!	!LO:TX:t=P:problem=kreska pseudotaktowa	!
.	2G/	.	.	.	2G/	-ri-
*v	*v	*	*	*	*	*
=2-	=2-	=2-	=2-	=2-	=2-
1.C	Ky-	1r	.	1G	-e
!	!	!	!	!LO:TX:t=P:problem=2\middle or right&colon; global	!
.	.	1.c	Ky-	2.c\	.
2C/	-ri-	.	.	.	.
.	.	.	.	4B-\	.
=3-	=3-	=3-	=3-	=3-	=3-
1C	-e	.	.	2A/	.
!	!	!	!	!LO:TX:t=P:problem=kreska pseudotaktowa	!
.	.	2c/	-rie	2G/	.
1.F	e-	1c	e-	1.A	e-
=4-	=4-	=4-	=4-	=4-	=4-
.	.	0f	-ley-	.	.
!LO:TX:t=P:problem=2\middle or right&colon; global	!	!	!	!	!
2E\	.	.	.	2G/	.
1D	-ley-	.	.	1F	-ley-
=5-	=5-	=5-	=5-	=5-	=5-
1C	-ſon	1e	-ſon	2G/	-ſon
.	.	.	.	1C	ky-
1.FF	ky-	2r	.	.	.
*	*	*	*ij	*	*
!	!	!	!	!LO:TX:t=P:problem=kreska pseudotaktowa	!
.	.	1c\	Ky-	2C/	-ri-
=6-	=6-	=6-	=6-	=6-	=6-
*	*	*	*	*custos:F	*
.	.	.	.	1C	-e
2FF/	-ri-	2c/	-rie	.	.
*custos:BB	*	*	*	*	*
!	!	!	!	!LO:LB:g=original	!
1FF	-e	1c	e-	1.F	e-
!LO:LB:g=original	!	!	!	!	!
=7-	=7-	=7-	=7-	=7-	=7-
1.BB-	.	1.d	-ley-	.	.
!	!	!	!	!LO:TX:t=P:problem=kreska pseudotaktowa	!
.	.	.	.	2E/	.
.	.	.	.	2D/	.
*	*	*custos:B	*	*	*
2AA/	e-	2c/	-ſon	2.F/	.
!	!	!LO:LB:g=original	!	!	!
=8-	=8-	=8-	=8-	=8-	=8-
1GG	-ley-	2.B-/	Ky-	.	.
.	.	.	.	8E/L	.
.	.	.	.	8D/J	.
!	!	!	!	!LO:TX:t=P:problem=kreska pseudotaktowa	!
.	.	.	.	2E/	-ley-
.	.	4c/	-ri-	.	.
!	!	!LO:TX:t=P:problem=2\middle or right&colon; global	!	!	!
1FF	-ſon	2d\	-e	1F	-son
.	.	4c/	.	.	.
.	.	4B-/	.	.	.
=9-	=9-	=9-	=9-	=9-	=9-
*	*ij	*	*	*	*
1.F	Ky-	1c	.	2rF	.
*	*	*	*	*	*ij
.	.	.	.	1A	Ky-
.	.	2A/	.	.	.
!	!	!	!	!LO:TX:t=P:problem=kreska pseudotaktowa	!
2F\	-ri-	1c\	.	2A/	-ri-
=10-	=10-	=10-	=10-	=10-	=10-
1F	-e	.	.	1A	-e
.	.	2c/	e-	.	.
*	*	*lig	*	*	*
2D/	e-	1d	-ley-	2F/	e-
2BB-/	.	.	.	2.B-\	.
=11-	=11-	=11-	=11-	=11-	=11-
1F	.	1c	.	.	.
.	.	.	.	8A/L	.
.	.	.	.	8G/J	.
!	!	!	!	!LO:TX:t=P:problem=kreska pseudotaktowa	!
.	.	.	.	2A/	.
*	*	*Xlig	*	*	*
1BB-	-ley-	1d	.	1B-	-ley-
=12-	=12-	=12-	=12-	=12-	=12-
!LO:TX:t=P:problem=fermata above/below	!	!LO:TX:t=P:problem=fermata above/below	!	!LO:TX:t=P:problem=fermata above/below	!
0FF;;l	-ſon	0c;;l	-ſon	0A;;l	-son
*	*	*	*	*	*Xij
*	*Xij	*	*Xij	*	*
!LO:LB:g=original	!	!LO:LB:g=original	!	!LO:LB:g=original	!
=13-	=13-	=13-	=13-	=13-	=13-
*M2/1	*	*M2/1	*	*M2/1	*
*met(C|)	*	*met(C|)	*	*met(C|)	*
1F	CHri-	0c	CHri-	00r	.
2E\	-ſte	.	.	.	.
1F\	.	.	.	.	.
=14-	=14-	=14-	=14-	=14-	=14-
.	.	0c	-ſte	.	.
4E\	e-	.	.	.	.
4D/	.	.	.	.	.
2E\	.	.	.	.	.
2F\	-ley-	.	.	.	.
=15-	=15-	=15-	=15-	=15-	=15-
1BB-	-ſon	1d	.	1B-	CHri-
*	*ij	*	*	*	*
2F\	Chri-	2c/	.	2A/	.
4BB-/	-ſte	1d\	e-	1B-\	-ſte
4C/	.	.	.	.	.
=16-	=16-	=16-	=16-	=16-	=16-
4D/	e-	.	.	.	.
4E\	.	.	.	.	.
1F	.	4c/	.	4A/	.
!	!	!	!	!LO:TX:t=P:problem=kreska pseudotaktowa	!
.	.	4B-/	.	4G/	e-
.	.	2c/	.	2A/	-ley-
2BB-/	ley-	2d\	-ley-	2B-\	.
=17-	=17-	=17-	=17-	=17-	=17-
2C/	-ſon	1c	-ſon	00G	-ſon
*	*Xij	*	*	*	*
2C/	Chri-	.	.	.	.
2BB-/	-ſte	2r	.	.	.
1C/	e-	2c/	Chri-	.	.
=18-	=18-	=18-	=18-	=18-	=18-
.	.	2c/	-ſte	.	.
4BB-/	.	1d	e-	.	.
*custos:BB	*	*	*	*	*
4AA/	.	.	.	.	.
!LO:LB:g=original	!	!	!	!	!
2BB-/	.	.	.	.	.
*	*	*custos:c	*	*	*
2C/	.	2c/	-ley-	.	.
!	!	!LO:PB:g=original	!	!	!
=19-	=19-	=19-	=19-	=19-	=19-
*	*	*	*	*	*ij
1FF	-ley-	0c	-ſon	2A/	CHri-
.	.	.	.	1F	-ſte
1C	-son	.	.	.	.
!	!	!	!	!LO:TX:t=P:problem=kreska pseudotaktowa	!
.	.	.	.	2E/	e-
=20-	=20-	=20-	=20-	=20-	=20-
2r	.	1rc	.	1D	-ley-
*	*ij	*	*	*	*
1F	Chri-	.	.	.	.
!	!	!	!	!LO:TX:t=P:problem=kreska pseudotaktowa	!
.	.	2rA	.	1C	-ſon
*	*	*	*	*	*Xij
*	*	*	*ij	*	*
2E\	-ſte	1c\	e-	.	.
=21-	=21-	=21-	=21-	=21-	=21-
1D	e-	.	.	2rD	.
*	*	*	*	*custos:G	*
.	.	2B-/	.	2F/	Chri-
!	!	!	!	!LO:LB:g=original	!
2C/	.	1c	-ley-	2G/	-ſte
2AA/	.	.	.	2A/	e-
=22-	=22-	=22-	=22-	=22-	=22-
1BB-	-ley-	1F	-ſon	2D/	-ley-
.	.	.	.	1B-	.
1FF	-son.	2rA	.	.	.
*	*Xij	*	*	*	*
!	!	!	!	!LO:TX:t=P:problem=kreska pseudotaktowa	!
.	.	1c\	Chri-	2A/	-son
=23-	=23-	=23-	=23-	=23-	=23-
*	*	*	*	*	*ij
1rBB	.	.	.	1G	Chri-
.	.	2B-/	.	.	.
2rBB	.	1A	-ſte	1.F	.
1F\	Chri-	.	.	.	.
=24-	=24-	=24-	=24-	=24-	=24-
.	.	2G/	e-	.	.
2E\	-ſte	2G/	-ley-	1c	-ſte
1D	.	2A/	.	.	.
!	!	!	!	!LO:TX:t=P:problem=kreska pseudotaktowa	!
.	.	2F/	.	2B-\	.
=25-	=25-	=25-	=25-	=25-	=25-
1C	-e-	00c;;l	-ſon	2A/	e-
*	*	*	*Xij	*	*
.	.	.	.	2G/	.
1FF	-ley-	.	.	1A	-ley-
=26-	=26-	=26-	=26-	=26-	=26-
0C;;l	-son.	.	.	0G;;l	-son
*	*	*	*	*	*Xij
!LO:PB:g=original	!	!LO:LB:g=original	!	!LO:LB:g=original	!
=27-	=27-	=27-	=27-	=27-	=27-
*M2/1	*	*M2/1	*	*M2/1	*
*met(C|)	*	*met(C|)	*	*met(C|)	*
*^	*	*	*	*	*
!LO:TX:t=P:problem=partia dopisana pomocniczo	!	!	!	!	!	!
00rG	0G	.	1r	.	00r	.
.	.	.	0c	Ky-	.	.
=28-	=28-	=28-	=28-	=28-	=28-	=28-
.	1A	.	.	.	.	.
.	1F	.	1d	-ri-	.	.
=29-	=29-	=29-	=29-	=29-	=29-	=29-
1rD	2.G\	.	1B-	-e	0G	Ky-
.	4F\	.	.	.	.	.
0C	0rD	Ky-	0c	e-	.	.
*v	*v	*	*	*	*	*
=30-	=30-	=30-	=30-	=30-	=30-
.	.	.	.	1A	-ri-
!	!	!	!	!LO:TX:t=P:problem=kreska pseudotaktowa	!
1D	-ri-	1A	.	1F	-e
=31-	=31-	=31-	=31-	=31-	=31-
1BB-	-e	2.B-/	.	2G/	.
.	.	.	.	1F	e-
.	.	4A/	-ley-	.	.
1C	.	1G	-ſon	.	.
!	!	!	!	!LO:TX:t=P:problem=kreska pseudotaktowa	!
.	.	.	.	2E/	-ley-
=32-	=32-	=32-	=32-	=32-	=32-
!	!	!	!	!LO:TX:t=P:global:problem=rozdzielacz słów	!
1FF	e-	2rA	.	1F,<	-ſon
*	*	*	*ij	*	*
.	.	1c	Ky-	.	.
1F	.	.	.	1A	ky-
.	.	1d\	-ri-	.	.
=33-	=33-	=33-	=33-	=33-	=33-
1G	.	.	.	1B-	-ri-
.	.	2B-/	-e	.	.
1E	.	2.c/	e-	1G	-e
*	*	*custos:A	*	*	*
.	.	4B-/	.	.	.
!	!	!LO:LB:g=original	!	!	!
=34-	=34-	=34-	=34-	=34-	=34-
1F	-ley-	4A/	.	2A/	.
.	.	4G/	.	.	.
.	.	2A/	-ley-	2F/	e-
2C,</	-ſon	2G/	-son	2G/	.
2C/	ky-	2c/	Ky-	2G/	-ley-
=35-	=35-	=35-	=35-	=35-	=35-
*	*	*	*	*custos:F	*
2D/	-ri-	2A/	-ri-	1F	-son
*custos:C	*	*	*	*	*
2BB-/	-e	2d\	-e	.	.
!LO:LB:g=original	!	!	!	!LO:PB:g=original	!
2C/	.	2c/	e-	2r	.
*	*	*	*	*	*ij
2D/	e-	2A/	-ley-	2F/	ky-
=36-	=36-	=36-	=36-	=36-	=36-
1C	-ley-	1c	-son	2G/	-ri-
!	!	!	!	!LO:TX:t=P:problem=kreska pseudotaktowa	!
.	.	.	.	2E/	-e
2FF/	-son	2rA	.	2F/	e-
*	*ij	*	*	*	*
2F\	ky-	2c/	Ky-	2A/	.
=37-	=37-	=37-	=37-	=37-	=37-
2G\	-ri-	2B-/	-ri-	2G/	.
!	!	!	!	!LO:TX:t=P:problem=kreska pseudotaktowa	!
2E\	-e	2G/	-e	2c\	.
2F\	.	2c/	.	2A/	-ley-
2D/	e-	2d\	.	2B-\	-son
=38-	=38-	=38-	=38-	=38-	=38-
!	!	!LO:N:acc=#	!	!	!
2C/	-ley-	2en\	e-	2G/	ky-
!	!	!	!	!LO:TX:t=P:problem=kreska pseudotaktowa	!
2C/	-son	2c/	.	2A/	-ri-
2BB-/	ky-	2d\	.	2B-\	-e
2FF/	-ri-	2c/	.	2A/	e-
=39-	=39-	=39-	=39-	=39-	=39-
*	*	*	*	*lig	*
1C	-e	0c	.	1G	.
1FF	e-	.	.	1A	.
*	*	*	*	*Xlig	*
=40-	=40-	=40-	=40-	=40-	=40-
0BB-	-ley-	0d	-ley-	0B-	-ley-
=41-	=41-	=41-	=41-	=41-	=41-
0FF;;l	-son	0c;;l	-son	0A;;l	-son
*	*Xij	*	*Xij	*	*Xij
=-	=-	=-	=-	=-	=-
*-	*-	*-	*-	*-	*-
!!!system-decoration: [(s1,s2,s3)]
!!!RDF**kern: l = terminal long
!!!RDF**kern: > = above
!!!RDF**kern: < = below
!!!EED: Antoni Szymański
!!!EEV: 2021-03-22
!!!ENC: Andrzej Kubiczek
!!!END: 2021-03-11
